packages/foundations/assets/icons/functional/images/audio & video/fast_backward.svg

<svg xmlns="http://www.w3.org/2000/svg" width="32" height="32" fill="none"><path fill="#1A1C1F" fill-rule="evenodd" d="M14.546 8.058a2.3 2.3 0 0 0-.427.162c-.397.202-8.962 6.13-9.228 6.386-.775.749-.783 2.024-.016 2.776.132.129 2.251 1.623 4.709 3.32 4.983 3.439 4.822 3.344 5.58 3.281a2.06 2.06 0 0 0 1.698-1.25c.119-.296.124-.376.151-2.29l.027-1.984 3.867 2.666c4.125 2.843 4.177 2.875 4.8 2.875.356 0 .886-.179 1.186-.401.308-.227.53-.523.692-.925l.122-.301.015-6.101c.009-3.746-.005-6.245-.037-6.475-.13-.935-.743-1.586-1.653-1.755a2 2 0 0 0-1.232.189c-.132.069-1.932 1.294-4 2.721l-3.76 2.595-.027-1.987c-.027-1.913-.032-1.998-.15-2.291-.358-.891-1.389-1.43-2.317-1.211m.428 10.93-.014 2.987-4.293-2.96c-2.362-1.628-4.294-2.983-4.294-3.012s1.932-1.385 4.294-3.013l4.293-2.961.014 2.986c.007 1.642.007 4.329 0 5.973m10.713 2.969c-.011.011-1.965-1.319-4.341-2.955-3.315-2.282-4.308-2.99-4.261-3.039.034-.035 1.982-1.387 4.328-3.004l4.267-2.94.014 5.959c.007 3.278.004 5.968-.007 5.979"/></svg>

<svg width="32" height="32" viewBox="0 0 32 32" fill="none" xmlns="http://www.w3.org/2000/svg"><path d="M14.546 8.058 C 14.435 8.084,14.243 8.157,14.119 8.220 C 13.722 8.422,5.157 14.350,4.891 14.606 C 4.116 15.355,4.108 16.630,4.875 17.382 C 5.007 17.511,7.126 19.005,9.584 20.702 C 14.567 24.141,14.406 24.046,15.164 23.983 C 15.899 23.921,16.589 23.414,16.862 22.733 C 16.981 22.437,16.986 22.357,17.013 20.443 L 17.040 18.459 20.907 21.125 C 25.032 23.968,25.084 24.000,25.707 24.000 C 26.063 24.000,26.593 23.821,26.893 23.599 C 27.201 23.372,27.423 23.076,27.585 22.674 L 27.707 22.373 27.722 16.272 C 27.731 12.526,27.717 10.027,27.685 9.797 C 27.555 8.862,26.942 8.211,26.032 8.042 C 25.637 7.968,25.162 8.041,24.800 8.231 C 24.668 8.300,22.868 9.525,20.800 10.952 L 17.040 13.547 17.013 11.560 C 16.986 9.647,16.981 9.562,16.863 9.269 C 16.505 8.378,15.474 7.839,14.546 8.058 M14.974 18.988 L 14.960 21.975 10.667 19.015 C 8.305 17.387,6.373 16.032,6.373 16.003 C 6.373 15.974,8.305 14.618,10.667 12.990 L 14.960 10.029 14.974 13.015 C 14.981 14.657,14.981 17.344,14.974 18.988 M25.687 21.957 C 25.676 21.968,23.722 20.638,21.346 19.002 C 18.031 16.720,17.038 16.012,17.085 15.963 C 17.119 15.928,19.067 14.576,21.413 12.959 L 25.680 10.019 25.694 15.978 C 25.701 19.256,25.698 21.946,25.687 21.957 " fill="#1A1C1F" stroke="none" fill-rule="evenodd"></path></svg>
